public/assets/images/others/facility-12.svg

<svg width="40" height="41" viewBox="0 0 40 41" fill="none" xmlns="http://www.w3.org/2000/svg">
<path d="M20.1971 0.783203C20.2979 0.783389 20.3987 0.784332 20.4992 0.786025C22.2232 0.81506 23.4713 2.32118 23.4713 4.0454C23.4713 7.18993 27.2741 8.76384 29.4976 6.54035C30.7165 5.32148 32.6644 5.13769 33.9024 6.33715C33.9777 6.41014 34.0525 6.48373 34.1266 6.55792C34.2015 6.63272 34.2757 6.70813 34.3494 6.78414C35.5489 8.02222 35.3655 9.96991 34.1465 11.1888C31.9227 13.4124 33.4972 17.215 36.642 17.215C38.3661 17.215 39.8735 18.4629 39.8997 20.1868C39.9012 20.2867 39.902 20.3867 39.902 20.487V20.5137C39.902 20.6147 39.9012 20.7155 39.8997 20.8161C39.8733 22.5399 38.3658 23.7877 36.6419 23.7877C33.4975 23.7877 31.9222 27.5898 34.1462 29.8126L34.6912 30.3573C35.5958 31.2614 35.7281 32.7001 34.8752 33.6531C34.6337 33.9229 34.3851 34.186 34.1298 34.4419C34.1293 34.4424 34.1286 34.4427 34.1278 34.4427C34.1271 34.4427 34.1263 34.443 34.1258 34.4436C33.8704 34.699 33.6081 34.9475 33.3393 35.1888C32.3879 36.0425 30.9499 35.9104 30.0459 35.0067L29.4978 34.4587C27.2736 32.2352 23.4713 33.8105 23.4713 36.9555C23.4713 38.6797 22.2234 40.1855 20.4995 40.2148C20.3995 40.2165 20.2994 40.2174 20.199 40.2176H20.1705C20.0708 40.2174 19.9714 40.2165 19.8722 40.2148C18.1482 40.1857 16.9001 38.6795 16.9001 36.9553C16.9001 33.8107 13.0966 32.2375 10.8731 34.4611C9.65455 35.6795 7.7074 35.864 6.4697 34.665C6.31795 34.518 6.16855 34.3686 6.02156 34.2168C4.82254 32.9785 5.00597 31.031 6.22499 29.8123C8.44864 27.5894 6.8711 23.7877 3.7269 23.7877C2.00432 23.7877 0.497186 22.5421 0.469994 20.8197C0.468353 20.7158 0.467529 20.6117 0.467529 20.5075V20.4502C0.4694 20.1606 0.488316 19.8068 0.515484 19.4408L0.523873 19.3307C0.618523 18.1185 1.65371 17.215 2.8696 17.215H3.81886C6.93064 17.215 8.44025 13.4039 6.2398 11.2036C5.02168 9.98563 4.8195 8.02221 6.01936 6.7862C6.09247 6.71089 6.16619 6.63617 6.24051 6.56204L6.24442 6.55792C6.31859 6.48359 6.39338 6.40986 6.46877 6.33674C7.7061 5.13657 9.65492 5.32148 10.8738 6.54035C13.0974 8.76384 16.9001 7.18993 16.9001 4.0454C16.9001 2.32118 18.1483 0.814982 19.8722 0.786018C19.9728 0.784329 20.0735 0.783389 20.1744 0.783203H20.1971ZM20.1951 15.5718H20.1763C17.4733 15.5718 15.2584 17.788 15.2548 20.4911V20.5095C15.2584 23.2135 17.4724 25.4289 20.1763 25.4289H20.1951C22.8988 25.4289 25.1147 23.2132 25.1147 20.5095V20.4911C25.1147 17.7872 22.899 15.5718 20.1951 15.5718Z" fill="#FF4A00"/>
</svg>

<svg xmlns="http://www.w3.org/2000/svg" width="40" height="41" fill="none" viewBox="0 0 40 41"><path fill="#ff4a00" d="M20.197.783q.151 0 .302.003c1.724.03 2.972 1.535 2.972 3.26 0 3.144 3.803 4.718 6.027 2.494 1.218-1.219 3.166-1.402 4.404-.203a20 20 0 0 1 .447.447c1.2 1.238 1.017 3.186-.202 4.405-2.224 2.223-.65 6.026 2.495 6.026 1.724 0 3.231 1.248 3.258 2.972l.002.3v.027l-.002.302c-.027 1.724-1.534 2.972-3.258 2.972-3.145 0-4.72 3.802-2.496 6.025l.545.544c.905.904 1.037 2.343.184 3.296a20 20 0 0 1-.75.79 20 20 0 0 1-.786.746c-.951.853-2.39.721-3.293-.182l-.548-.548c-2.224-2.224-6.027-.649-6.027 2.496 0 1.725-1.248 3.23-2.971 3.26l-.301.003h-.029q-.15 0-.298-.003c-1.724-.03-2.972-1.536-2.972-3.26 0-3.144-3.803-4.718-6.027-2.494-1.218 1.218-3.166 1.403-4.403.204a20 20 0 0 1-.448-.448c-1.2-1.239-1.016-3.186.203-4.405 2.224-2.223.646-6.024-2.498-6.024-1.723 0-3.23-1.246-3.257-2.968l-.002-.312v-.058c.001-.29.02-.643.047-1.01l.009-.11c.095-1.211 1.13-2.115 2.346-2.115h.949c3.112 0 4.621-3.811 2.42-6.011-1.217-1.218-1.42-3.182-.22-4.418q.11-.113.222-.224l.003-.004.225-.221c1.237-1.2 3.186-1.016 4.405.203 2.223 2.224 6.026.65 6.026-2.495 0-1.724 1.248-3.23 2.972-3.259q.15-.003.302-.003zm-.002 14.789h-.019c-2.703 0-4.918 2.216-4.921 4.92v.017c.003 2.704 2.217 4.92 4.921 4.92h.02c2.703 0 4.919-2.216 4.919-4.92v-.018c0-2.704-2.216-4.92-4.92-4.92"/></svg>
